src/images/home.svg

<svg height="31.496" viewBox="0 0 40.503 31.496" width="40.503" xmlns="http://www.w3.org/2000/svg"><path d="m19.714 10.425-12.964 10.675v11.525a1.125 1.125 0 0 0 1.125 1.125l7.879-.02a1.125 1.125 0 0 0 1.12-1.13v-6.73a1.125 1.125 0 0 1 1.126-1.12h4.5a1.125 1.125 0 0 1 1.125 1.125v6.725a1.125 1.125 0 0 0 1.125 1.129l7.876.022a1.125 1.125 0 0 0 1.125-1.125v-11.532l-12.962-10.669a.857.857 0 0 0 -1.075 0zm20.477 7.257-5.878-4.845v-9.737a.844.844 0 0 0 -.844-.844h-3.938a.844.844 0 0 0 -.844.844v5.1l-6.3-5.179a3.375 3.375 0 0 0 -4.289 0l-17.793 14.66a.844.844 0 0 0 -.112 1.189l1.793 2.18a.844.844 0 0 0 1.189.115l16.539-13.623a.857.857 0 0 1 1.076 0l16.54 13.622a.844.844 0 0 0 1.188-.112l1.793-2.18a.844.844 0 0 0 -.12-1.19z" fill="#df948c" transform="translate(.001 -2.254)"/></svg>

<svg xmlns="http://www.w3.org/2000/svg" width="40.503" height="31.496" viewBox="0 0 40.503 31.496">
  <path id="Icon_awesome-home" data-name="Icon awesome-home" d="M19.714,10.425,6.75,21.1V32.625A1.125,1.125,0,0,0,7.875,33.75l7.879-.02A1.125,1.125,0,0,0,16.874,32.6v-6.73A1.125,1.125,0,0,1,18,24.75h4.5a1.125,1.125,0,0,1,1.125,1.125V32.6a1.125,1.125,0,0,0,1.125,1.129l7.876.022a1.125,1.125,0,0,0,1.125-1.125V21.094L20.789,10.425A.857.857,0,0,0,19.714,10.425Zm20.477,7.257-5.878-4.845V3.1a.844.844,0,0,0-.844-.844H29.531a.844.844,0,0,0-.844.844V8.2l-6.3-5.179a3.375,3.375,0,0,0-4.289,0L.305,17.681A.844.844,0,0,0,.193,18.87l1.793,2.18a.844.844,0,0,0,1.189.115L19.714,7.542a.857.857,0,0,1,1.076,0l16.54,13.622a.844.844,0,0,0,1.188-.112l1.793-2.18a.844.844,0,0,0-.12-1.19Z" transform="translate(0.001 -2.254)" fill="#df948c"/>
</svg>
